themes/sector_starter/build/sprite/icon--facebook-dark-grey.svg

<svg xmlns="http://www.w3.org/2000/svg" width="16" height="16" viewBox="0 0 16 16"><style type="text/css">.st0{fill:#333333;}</style><path class="st0" d="M9.2 5.2v-1.8s.1-.2.1-.3c.1-.1.2-.2.3-.2l.6-.1h1.4v-2.8h-2.1c-1.3 0-2.2.3-2.7.9s-.9 1.5-.9 2.7v1.7h-1.6v2.7h1.6v8h3.3v-8h2.2l.3-2.8h-2.5z"/></svg>

<svg xmlns="http://www.w3.org/2000/svg" width="16" height="16"><path d="M9.2 5.2V3.4s.1-.2.1-.3c.1-.1.2-.2.3-.2l.6-.1h1.4V0H9.5C8.2 0 7.3.3 6.8.9s-.9 1.5-.9 2.7v1.7H4.3V8h1.6v8h3.3V8h2.2l.3-2.8H9.2z" fill="#333"/></svg>
